libs/icons/src/svg/payout.svg

<svg width="16" height="16" viewBox="0 0 16 16" fill="none" xmlns="http://www.w3.org/2000/svg">
<g clip-path="url(#clip0_3_3348)">
<path d="M16 7.3C16 7.2 16 7.1 15.9 6.9C15.8 6.8 15.8 6.8 15.7 6.7L13.3 5V0.7C13.3 0.3 13 0 12.6 0H3.3C2.9 0 2.7 0.3 2.7 0.7V5L0.3 6.8C0.2 6.9 0.1 7 0.1 7C0 7.1 0 7.2 0 7.3V15.4C0 15.7 0.3 16 0.7 16H15.3C15.7 16 16 15.7 16 15.3C16 15.3 16 7.4 16 7.3ZM4 1.3H12V8.3L8 10.5L4 8.4V1.3ZM1.3 14.6V8.4L12.7 14.6H1.3ZM14.7 14.1L9.4 11.2L14.7 8.3V14.1Z" fill="#202327"/>
<path d="M8.49998 8.9V8.4C8.69998 8.3 8.99998 8.2 9.19998 8.1C9.49998 7.9 9.79998 7.5 9.79998 6.8C9.79998 5.9 9.09998 5.5 8.49998 5.3V3.9C8.69998 4 8.89998 4 9.19998 4.1C9.49998 4.2 9.79998 4.2 9.89998 3.9C9.99998 3.6 9.89998 3.4 9.69998 3.3C9.49998 3.2 8.89998 3 8.49998 2.9V2.8C8.49998 2.5 8.29998 2.3 7.99998 2.3C7.69998 2.3 7.39998 2.5 7.39998 2.8V3C7.09998 3.1 6.99998 3.1 6.49998 3.3C5.99998 3.5 5.89998 3.9 5.89998 4.4C5.89998 5.4 6.59998 5.8 7.39998 6.1V7.5C7.09998 7.4 6.59998 7.3 6.29998 7.2C5.99998 7.1 5.79998 7.3 5.69998 7.6C5.59998 7.9 5.69998 8.1 5.99998 8.2C6.39998 8.3 6.89998 8.5 7.39998 8.5V9C7.39998 9.3 7.69998 9.5 7.99998 9.5C8.29998 9.5 8.49998 9.2 8.49998 8.9ZM8.49998 6.4C8.79998 6.5 8.79998 6.7 8.79998 6.8C8.79998 7.1 8.69998 7.2 8.59998 7.3L8.49998 7.4V6.4ZM7.49998 5C7.09998 4.8 6.99998 4.6 6.99998 4.4C6.99998 4.2 7.09998 4.1 7.19998 4C7.29998 3.9 7.39998 3.9 7.49998 3.9V5Z" fill="#202327"/>
</g>
<defs>
<clipPath id="clip0_3_3348">
<rect width="16" height="16" fill="white"/>
</clipPath>
</defs>
</svg>

<svg xmlns="http://www.w3.org/2000/svg" viewBox="0 0 16 16" class="sageicon"><path d="M16 7.3c0-.1 0-.2-.1-.4l-.2-.2L13.3 5V.7c0-.4-.3-.7-.7-.7H3.3c-.4 0-.6.3-.6.7V5L.3 6.8.1 7c-.1.1-.1.2-.1.3v8.1c0 .3.3.6.7.6h14.6c.4 0 .7-.3.7-.7v-8Zm-12-6h8v7l-4 2.2-4-2.1V1.3ZM1.3 14.6V8.4l11.4 6.2H1.3Zm13.4-.5-5.3-2.9 5.3-2.9v5.8Z"/><path d="M8.5 8.9v-.5c.2-.1.5-.2.7-.3.3-.2.6-.6.6-1.3 0-.9-.7-1.3-1.3-1.5V3.9c.2.1.4.1.7.2.3.1.6.1.7-.2.1-.3 0-.5-.2-.6-.2-.1-.8-.3-1.2-.4v-.1c0-.3-.2-.5-.5-.5s-.6.2-.6.5V3c-.3.1-.4.1-.9.3-.5.2-.6.6-.6 1.1 0 1 .7 1.4 1.5 1.7v1.4c-.3-.1-.8-.2-1.1-.3-.3-.1-.5.1-.6.4-.1.3 0 .5.3.6.4.1.9.3 1.4.3V9c0 .3.3.5.6.5s.5-.3.5-.6Zm0-2.5c.3.1.3.3.3.4 0 .3-.1.4-.2.5l-.1.1v-1ZM7.5 5c-.4-.2-.5-.4-.5-.6 0-.2.1-.3.2-.4.1-.1.2-.1.3-.1V5Z"/></svg>
